X:1
T:Crux fidelis inter omnes
T:Giovanni Maria Sabino
T:Source : Ghirlanda Sacra---Venetia--Ang.Gardano (B.Magni)---1625. Editor : André Vierendeels (26/12/16).
T:Notes : Original clefs : C1, F4 Editorial accidentals above the staff Figures in BC are notated in original print Original note values have been halved in 3-beat measures Dotted brackets indicate black notes Music collected by Leonardo Simonetti
T:Crux fidelis inter omnes
T:©
T:©
T:©
T:©
T:©
T:©
C:Giovanni Maria Sabino
Z:©
%%score 1 { 2 | 3 }
L:1/8
Q:1/4=116
M:4/4
K:C
V:1 treble nm="Soprano" snm="S"
V:2 treble nm="MusicXML Part"
V:3 bass 
V:1
 c8- | c4 B4 | A8 | G8 | A8- | A4 G4 | F8- | F4 E4 | z8 | z4 A4- | A4 G4 | F8 | E4 c4- | c4 B4 | %14
w: Crux|_ fi-|de-|lis|in-|* ter|o-|* mnes,||Crux|_ fi-|de-|lis, Crux|_ fi-|
 A8 | G8 | A6 G2 | F8 | E8 | G2 FE c2 c2 | A6 A2 | G3 F E2 E2 | D4 z4 | z/ C/D/E/ F/G/A/B/ c2 BA | %24
w: de-|lis|in- ter|o-|mnes|ar- * * * bor|u- na|no- * * bi-|lis|ar- * * * * * * * * *|
 d2 d2 B2 c2 | c2 B2 c4 |[M:3/2] c6 B2 G2 A2 | B4 G2 c4 d2 | B2 c2 d4 c4 | B4 A2 A4 G2 | %30
w: * bor, u- na|no- bi- lis,|nul- la, nul- la|syl- va ta- lem|pro- fert fron- de|fio- re ger- mi-|
 G2 G2 A2 B2 G4 | A2 G2 F2 E6 | E2 E2 ^F2 G3 F E2 | ^F2 F2 ^G2 A3 G F2 | E4 ^F2 ^G2 A4 | %35
w: ne, nul- la syl- va|ta- lem _ pro-|fert fron- de fio- * *|re, fron- de fio- * *|* * * re|
 A4 ^G2 A2 A2 B2 | c2 B3 A ^G2 A4 | A4 ^G2 A6 | z2 c2 B2 A4 G2 |[M:9/4] F2 D4 E6 E2 E2 ^F2 | %40
w: ger- mi- ne, fron- de|fio- * * * re|ger- mi- ne,|nul- la sul- na|ta- lem pro- fert fron- de|
[M:3/2] G3 F E2 ^F2 F2 G2 | A3 G ^F2 G4 A2 | D2 E2 F2 E4 E2 | D2 F2 G2 A3 G F2 | G2 E2 F2 G3 F E2 | %45
w: fio- * * re, fron- de|fio- * * * *|* re _ ger- mi|ne fron- de fio- * *|re, fron- de fio- * *|
 F2 G3 F E2 D4 | E4 E2 D2 A2 B2 | c3 B A2 B2 B2 ^c2 |"^-natural" d3 c B2 c3 B A2 | B2 c4 c4 B2 | %50
w: * * * * re,|ger- mi- ne fron- de|fio- * * re, fron- de|fio- * * * * *|* re ger- mi-|
[M:4/4] G8 | E2 F2 G2 FE | A4 G4 | FDEC D2 E2 | D6 D2 | G8 | z ccc B/A/G/F/ Ee | ee d/c/B/A/ Gddd | %58
w: ne|fron- * * * *|* fe|fio- * * * * re|ger- mi-|ne,|al _ le lu- * * * ia, al-|le- lu- ia, _ _ _ _ al- le- lu-|
 c/B/A/G/ FE GF E2 | DAAA G/F/E/D/ Cc | cc B/A/G/F/ Eeee | d/c/B/A/ G/E/F/G/ A/G/A/B/ c/G/A/B/ | %62
w: ia, _ _ _ _ _ al- le- lu-|ia, al- le- lu- ia, _ _ _ _ al-|le- lu- ia, _ _ _ _ al- le- lu-|ia _ _ _ _ _ _ _ _ _ _ _ _ _ _ _|
 c/B/c/A/ B/A/B/c/ d/c/d/B/ c/A/B/c/ | d/c/B/A/ ^GA B2 A2 |[M:3/2] c3 c B2 A3 G/F/ E2 | %65
w: _ _ _ _ _ _ _ _ _ _ _ _ _ _ _ _|* * * * al- le- lu- ia,|al- le- lu- ia, _ _ _|
 e3 f d2 c3 B/A/ G2 | A3 A G2 F3 E/D/ ^C2 | D3 E ^C2 D6 |[M:4/4] z4 DEFG | ABcB A2 G/A/B/c/ | %70
w: al- le- lu- ia, _ _ _|al- le- lu- ia, _ _ _|al- le- lu- ia,|al- * * *||
 d/c/B/A/ B2 c4- | c2 c4 B2 | c8 |] %73
w: |* le- lu-|ia.|
V:2
 z8 | z8 | z8 | z8 | z8 | z8 | z8 | z8 | z8 | z8 | z8 | z8 | z8 | z8 | z8 | z8 | z8 | z8 | z8 | %19
 z8 | z8 | z8 | z8 | z8 | z8 | z8 |[M:3/2] z12 | z12 | z12 | z12 | z12 | z12 | z12 | %33
"^-natural" z12 | z12 | z12 | z12 | z12 | z12 |[M:9/4] z18 |[M:3/2] z12 | z12 | z12 | z12 | z12 | %45
 z12 | z12 | z12 | z12 | z12 |[M:4/4] z8 | z8 | z8 | z8 | z8 | z8 | z8 | z8 | z8 | z8 | z8 | z8 | %62
 z8 | z8 |[M:3/2] z12 | z12 | z12 | z12 |[M:4/4] z8 | z8 | z8 | z8 | z8 |] %73
V:3
"^BC" C,8- | C,4 G,,4 | A,,8 | E,8 | F,8- | F,4 E,4 | D,8 | C,8 |"^6" A,,4 E,,4 | F,,3 G,, A,,4- | %10
 A,,4 E,4 | F,4 F,,4 | C,4 A,,4- | A,,4 E,4 | F,8 | C,8 | F,6 E,2 | D,8 | C,8 | C,8 | F,,8 | %21
 G,,4 A,,4 | D,8 | A,,4 F,,4 | D,,4 E,,3 F,, | G,,4 C,4 |[M:3/2] C,6 G,2 C2 C2 | B,4 B,2 A,4 A,2 | %28
 G,2 G,2 G,4 A,4 |"^-natural""^-natural" B,4 C2 D2 D,4 | G,2 G,2 G,2 G,2 C,4 | F,2 G,4 C,6 | %32
"^#" C,2 C,2 D,2 G,4 A,2 |"^#""^#" D,2 D,2 E,2 A,,4 D,2 |"^#""^#" C,4 D,2 E,2 F,4 | %35
"^#" E,4 E,2 A,,2 A,,2 G,,2 |"^#" C,2 D,4 E,2 F,4 |"^#" E,4 E,2 A,,6 | z2 A,2 E,2 F,4 C,2 | %39
[M:9/4]"^#" F,2 G,4 C,6 C,2 C,2 D,2 |[M:3/2]"^#" G,4 A,2 D,2 D,2 E,2 |"^#" A,,4 D,2 C,3 B,, A,,2 | %42
"^-natural" G,,4 F,,2 A,,4 A,,2 | D,6 D,6 | C,6 C,6 | _B,,2 G,,4 A,,2 B,,4 | A,,4 A,,2 D,6 | %47
"^#" C,4 D,2 G,4 A,2 | D,4 G,2 C,4 F,,2 | G,,2 A,,4 A,,6 |[M:4/4] C,8 | C,8 | F,4 E,4 | %53
 D,2 C,2 G,,2 E,,2 | G,,8 | C,8 | z C,C,C, D,2 E,2 | E,2 ^F,2 G, G,,G,,G,, | A,,2 _B,,2 G,,2 A,,2 | %59
 D,2 D,2 E,2 F,2 | F,,2 G,,2 A,,2 A,,2 | B,,2 C,2 C,4 |"^6" C,2 D,2 D,4 | D,2 E,F, E,2 A,,2 | %64
[M:3/2] A,3 A, G,2 F,3 E,/D,/ C,2 | C3 C B,2 A,3 G,/F,/ E,2 | F,3 F, E,2 D,3 C,/B,,/ A,,2 | %67
 _B,,2 G,,2 A,,2 D,6 |[M:4/4] z4 D,4 | D,2 C,2 C,2 B,,A,, | G,,2 D,2 A,,B,,C,D, | E,,4 G,,4 | %72
 C,8 |] %73

